!!!COM: Bach, Johann Sebastian
!!!CDT: 1685/3/-1750/7/28
!!!OPR@@DE: Das wohltemperierte Klavier
!!!OPR@EN: The Well-Tempered Clavier
!!!OTL: The Well-Tempered Clavier, Book 2, Fugue 20 in A minor
!!!SCT: BWV 889b
!!!parts: 3
**kern	**kern	**kern
*staff2	*staff1	*staff1
*clefF4	*clefG2	*clefG2
*k[]	*k[]	*k[]
*M4/4	*M4/4	*M4/4
*a:	*a:	*a:
*MM72	*MM72	*MM72
=1	=1	=1
4r	1r	1r
4e	.	.
4c	.	.
4f	.	.
=2	=2	=2
4G#	1r	1r
4r	.	.
8r	.	.
8d	.	.
8BL	.	.
8eJ	.	.
=3	=3	=3
8cL	4r	1r
8AJ	.	.
8F#L	4a	.
8d#J	.	.
8EL	4g	.
32e	.	.
32dn	.	.
32c	.	.
32BJ	.	.
8AL	4cc	.
32c	.	.
32B	.	.
32A	.	.
32GJ	.	.
=4	=4	=4
32F#L	4d#	1r
32G	.	.
[16A	.	.
32A]	.	.
32G	.	.
32F#	.	.
32EJ	.	.
32D#L	4r	.
32E	.	.
[16F#	.	.
32F#]	.	.
32E	.	.
32D#	.	.
32C#J	.	.
8.BBL	8r	.
.	8a	.
32C#	.	.
32D#J	.	.
8.D#tL	8f#L	.
.	8bJ	.
32C#	.	.
32D#J	.	.
=5	=5	=5
8EL	8gL	1r
32r	8eJ	.
32E	.	.
32Fn	.	.
32GJ	.	.
8AL	8c#L	.
32r	8aJ	.
32G	.	.
32F	.	.
32EJ	.	.
8DL	8fnL	.
32r	8dJ	.
32D	.	.
32E	.	.
32FJ	.	.
8GL	8BL	.
32r	8gJ	.
32F	.	.
32E	.	.
32DJ	.	.
=6	=6	=6
*	*strophe	*
*	*^	*
*	*S/sic	*S/ossia	*
8.CL	8e	8eL	4r
.	4axx	8cxxJ	.
16DJ	.	.	.
16EL	.	8Bxx	4ee
32F	.	.	.
32E	.	.	.
*	*v	*v	*
*	*Xstrophe	*
16D	8g#	.
16EJ	.	.
4F	8AL	4cc
.	32a	.
.	32gn	.
.	32f	.
.	32eJ	.
4r	8dL	4ff
.	32f	.
.	32e	.
.	32d	.
.	32cJ	.
=7	=7	=7
8r	32BL	4g#
.	32c	.
.	[16d	.
8F	32d]	.
.	32c	.
.	32B	.
.	32AJ	.
8BBL	32G#L	4r
.	32A	.
.	[16B	.
8DJ	32B]	.
.	32A	.
.	32G#	.
.	32F#J	.
8GG#L	8.EL	8r
8BBJ	.	8dd
.	32F#	.
.	32G#J	.
4E	8.G#tL	8bL
.	.	8eeJ
.	32F#	.
.	32G#J	.
=8	=8	=8
8AA	8AL	8ccL
8r	32r	8aJ
.	32A	.
.	32B	.
.	32cJ	.
8r	8dL	8f#L
8F#	32r	8ddJ
.	32c	.
.	32B	.
.	32AJ	.
8G	8GL	8bL
8r	32r	8gJ
.	32G	.
.	32A	.
.	32BJ	.
8r	8cL	8eL
8E	32r	8ccJ
.	32B-	.
.	32A	.
.	32GJ	.
=9	=9	=9
8FL	16FL	8aL
.	8f	.
8GJ	.	8bJ
.	[16fJ	.
8AL	32f]L	[4cc
.	32e	.
.	32f	.
.	32g	.
8GJ	32a	.
.	32g	.
.	32f	.
.	32eJ	.
8FL	[4d	32cc]L
.	.	32cc
.	.	32dd
.	.	32ee
8DJ	.	32ff
.	.	32ee
.	.	32dd
.	.	32ccJ
8GL	32d]L	4b
.	32d	.
.	32e	.
.	32f	.
8FJ	32g	.
.	32f	.
.	32e	.
.	32dJ	.
=10	=10	=10
4E	8cL	8r
.	8GJ	32cccL
.	.	32bb
.	.	32aa
.	.	32ggJ
4A	8cL	8ffL
.	8fJ	32aa
.	.	32gg
.	.	32ff
.	.	32eeJ
4BB	8r	32ddL
.	.	32ee
.	.	[16ff
.	8a	32ff]
.	.	32ee
.	.	32dd
.	.	32ccJ
4r	8dL	32bL
.	.	32cc
.	.	[16dd
.	8fJ	32dd]
.	.	32cc
.	.	32b
.	.	32aJ
=11	=11	=11
8r	8BL	8.gL
8F	8dJ	.
.	.	32a
.	.	32bJ
8DL	8fL	8.btL
8GJ	8dJ	.
.	.	32a
.	.	32bJ
8.EL	8gL	4cc
.	8cJ	.
32E	.	.
32F#J	.	.
8.F#tL	8AL	4r
.	8dJ	.
32E	.	.
32F#J	.	.
=12	=12	=12
8GL	8.BL	8r
8EJ	.	8g
.	32B	.
.	32c#J	.
4A	8.c#tL	8eL
.	.	8aJ
.	32B	.
.	32c#J	.
8r	4d	8.f#L
8D	.	.
.	.	32f#
.	.	32g#J
8BBL	4r	8.g#tL
8EJ	.	.
.	.	32f#
.	.	32g#J
=13	=13	=13
8CL	4r	16aL
.	.	32b
.	.	32cc
8AAJ	.	32dd
.	.	32ee
.	.	32ff#
.	.	32gg#J
8FF#L	16r	4aa
.	16ccL	.
8D#J	16b	.
.	[16ff#J	.
8EE	16ff#]L	4ggn
.	16b	.
8r	32ee	.
.	32dd	.
.	32cc	.
.	32bJ	.
4r	8aL	4ccc
.	32cc	.
.	32b	.
.	32a	.
.	32gJ	.
=14	=14	=14
8r	32f#L	4dd#
.	32g	.
.	[16a	.
8c	32a]	.
.	32g	.
.	32f#	.
.	32eJ	.
8F#L	32d#L	4r
.	32e	.
.	[16f#	.
8AJ	32f#]	.
.	32e	.
.	32d#	.
.	32c#J	.
8D#L	8.BL	8r
8F#J	.	8aa
.	32c#	.
.	32d#J	.
4B	8.d#tL	8ff#L
.	.	8bbJ
.	32c#	.
.	32d#J	.
=15	=15	=15
8EL	8e	8ggL
32r	8r	8eeJ
32EE	.	.
32FFn	.	.
32GGJ	.	.
8AAL	4r	8cc#L
32r	.	8aaJ
32GG	.	.
32FF	.	.
32EEJ	.	.
8DD	8r	8ffnL
8r	8d	32r
.	.	32dd
.	.	32ee
.	.	32ffJ
4r	8BL	8ggL
.	8gJ	32r
.	.	32ff
.	.	32ee
.	.	32ddJ
=16	=16	=16
8r	8e	8ccL
8A	8r	32r
.	.	32ee
.	.	32ff
.	.	32ggJ
8FL	4r	32aaL
.	.	32bb-
.	.	32aa
.	.	32gg
8dJ	.	32ff
.	.	32ee
.	.	32dd
.	.	32ccJ
8G#L	4r	32bnL
.	.	32cc
.	.	32b
.	.	32a
8EJ	.	32g#
.	.	32f#
.	.	32e
.	.	32dJ
[4A	32r	8cL
.	32eL	.
.	32fn	.
.	32gn	.
.	32a	8ccJ
.	32g	.
.	32f	.
.	32eJ	.
=17	=17	=17
32A]L	8dL	[2b
32A	.	.
32B	.	.
32c	.	.
32d	8fJ	.
32c	.	.
32B	.	.
32AJ	.	.
32G#L	8BL	.
32A	.	.
32G#	.	.
32F#	.	.
32E	8dJ	.
32D	.	.
32C	.	.
32BBJ	.	.
8AAL	4c	16b]L
.	.	16e
32A	.	[8aJ
32Gn	.	.
32Fn	.	.
32EJ	.	.
8DL	4f	16a]L
.	.	16A
32F	.	[8dJ
32E	.	.
32D	.	.
32CJ	.	.
=18	=18	=18
32BBL	4G#	8d]L
32C	.	.
[16D	.	.
32D]	.	8ffJ
32C	.	.
32BB	.	.
32AAJ	.	.
32GG#L	4r	8bL
32AA	.	.
[16BB	.	.
32BB]	.	8ddJ
32AA	.	.
32GG#	.	.
32FF#J	.	.
8.EEL	8r	4g#
.	8d	.
32FF#	.	.
32GG#J	.	.
8.GG#tL	8BL	[4b
.	8eJ	.
32FF#	.	.
32GG#J	.	.
=19	=19	=19
8.AAL	8c	8b]L
.	8r	32ee
.	.	32dd
32BB	.	32cc
32CJ	.	32bJ
8.C#tL	4r	16aL
.	.	32cc#
.	.	32ee
.	.	8ggJ
32BB	.	.
32C#J	.	.
8.DL	8r	8ff
.	32aL	8r
.	32g	.
32E	32f	.
32FJ	32eJ	.
8.F#tL	16dL	4r
.	32f#	.
.	32a	.
.	8ccnJ	.
32E	.	.
32F#J	.	.
=20	=20	=20
8.GL	8b	16r
.	.	32ddL
.	.	32cc
.	8r	16b
32A	.	32cc
32BJ	.	32ddJ
8.BtL	4r	8gL
.	.	8ffJ
32A	.	.
32BJ	.	.
8.cL	16r	8ee
.	32gL	.
.	32f	.
.	16e	8r
32d	32f	.
32eJ	32gJ	.
8.etL	8cL	4r
.	8b-J	.
32d	.	.
32eJ	.	.
=21	=21	=21
8.fL	16aL	4r
.	32bn	.
.	32cc#	.
.	[8ddJ	.
32g	.	.
32aJ	.	.
8.aTL	8dd]L	4aa
.	8ccJ	.
32g	.	.
32aJ	.	.
16b-L	4dd	4ff
32B-	.	.
32c	.	.
32d	.	.
32c	.	.
32B-	.	.
32AJ	.	.
32GL	4r	4bb-
32F	.	.
32G	.	.
32A	.	.
32B-	.	.
32A	.	.
32G	.	.
32FJ	.	.
=22	=22	=22
32EL	8r	4cc#
32F	.	.
[16G	.	.
32G]	8b-	.
32F	.	.
32E	.	.
32DJ	.	.
32C#L	8eL	4r
32D	.	.
[16E	.	.
32E]	8gJ	.
32D	.	.
32C#	.	.
32BBJ	.	.
8.AAL	8c#L	8r
.	8eeJ	8gg
32BB	.	.
32C#J	.	.
8.C#tL	[4a	8eeL
.	.	8aaJ
32BB	.	.
32C#J	.	.
=23	=23	=23
32DL	8a]L	8ffL
32E	.	.
[16F	.	.
32F]	8aJ	8ddJ
32E	.	.
32D	.	.
32CJ	.	.
32BBL	8dL	4r
32C	.	.
[16D	.	.
32D]	8fJ	.
32C	.	.
32BB	.	.
32AAJ	.	.
8.GGL	8BL	8r
.	8ddJ	8ff
32AA	.	.
32BBJ	.	.
8.BBtL	[4g	8ddL
.	.	8ggJ
32AA	.	.
32BBJ	.	.
=24	=24	=24
8CL	8g]	8eeL
32r	8r	8ccJ
32c	.	.
32d	.	.
32eJ	.	.
8fL	4r	8aL
32r	.	8ffJ
32e	.	.
32d	.	.
32cJ	.	.
8BL	8r	8ddL
32r	8d	8bJ
32BB	.	.
32C	.	.
32DJ	.	.
8EL	8BL	8g#L
32r	8g#J	8eeJ
32D	.	.
32C	.	.
32BBJ	.	.
=25	=25	=25
16AAL	4a	[4cc
32BB	.	.
32C	.	.
32D	.	.
32E	.	.
32F#	.	.
32G#J	.	.
[4A	32r	8cc]
.	32bL	.
.	32a	.
.	32gn	.
.	32fn	8r
.	32e	.
.	32d	.
.	32cJ	.
8A]L	8dL	32r
.	.	32bL
.	.	32cc
.	.	32dd
16G#	16B	32ee
.	.	32ff#
16F#J	16AJ	32gg#
.	.	32aaJ
8EL	4G#	32bbL
.	.	32aa
.	.	32gg#
.	.	32ff#
8DJ	.	32ee
.	.	32dd
.	.	32cc
.	.	32bJ
=26	=26	=26
4C	4A	32eeL
.	.	32dd
.	.	32cc
.	.	32b
.	.	32a
.	.	32g#
.	.	32f#
.	.	32eJ
4F	4r	32aL
.	.	32gn
.	.	32fn
.	.	32e
.	.	32d
.	.	32c
.	.	32B
.	.	32AJ
4GG#	32r	32f
.	32eL	32r
.	32d	16r
.	32c	.
.	32B	8r
.	32A	.
.	32G#	.
.	32F#J	.
4r	32dL	4r
.	32c	.
.	32B	.
.	32A	.
.	32G#	.
.	32F#	.
.	32E	.
.	32D#J	.
=27	=27	=27
8r	8E	8r
8Dn	8r	32r
.	.	32eL
.	.	32f#
.	.	32g#J
8BBL	4r	8.g#tL
8EJ	.	.
.	.	32f#
.	.	32g#J
8CL	8r	[2a
8AAJ	32r	.
.	32BL	.
.	32c	.
.	32dJ	.
8EEL	8.c#tL	.
8GGJ	.	.
.	32B	.
.	32c#J	.
=28	=28	=28
32FFL	8dL	8a]L
32EE	.	.
8DD	.	.
.	8fJ	8bJ
32EE	.	.
32FFJ	.	.
8.EEtL	8G#L	8eL
.	8BJ	8g#J
32DD	.	.
32EEJ	.	.
2AAA; 2AA;	2e; 2c;	2a;
==	==	==
*-	*-	*-
!!!OTA: Das wohltemperirte Clavier
!!!OCY: Deutschland
!!!PPP: Leipzig
!!!ODT: 1738//-1742//
!!!PDT: 1739//-1742//
!!!AFR: fuga; fugue
!!!AST: polyphony
!!!AMT: simple quadruple
!!!SCA: Bach-Werke-Verzeichnis
!!!YOR: Bach-Gesellschaft Ausgabe, Band 14
!!!YOO: Breitkopf und Härtel
!!!YOY: 1866
!!!YOE: Franz Kroll (1820-1877)
!!!AIN: cemba; clavi
!!!YEC: Copyright 1994, David Huron
!!!YEM: Rights to all derivative electronic formats reserved.
!!!ENC: David Huron
!!!END: 1986/12/13
!!!EED: David Huron
!!!YER: 1994/08/10
!!!EED2: Craig Stuart Sapp (notational niceties)
!!!EEV: 2020/09/19
!!!EFL: 44/48
